;FLAVOR:Marlin
;TIME:13971
;Filament used: 8.59705m
;Layer height: 0.2
;MINX:21.854
;MINY:26.521
;MINZ:0.2
;MAXX:176.814
;MAXY:208.479
;MAXZ:20
;TARGET_MACHINE.NAME:Creality Ender-3
;Generated with Cura_SteamEngine 5.6.0
M140 S50
M105
M190 S50
M104 S200
M105
M109 S200
M82 ;absolute extrusion mode
; Ender 3 Custom Start G-code
G92 E0 ; Reset Extruder
G28 ; Home all axes
G1 Z2.0 F3000 ; Move Z Axis up little to prevent scratching of Heat Bed
G1 X0.1 Y20 Z0.3 F5000.0 ; Move to start position
G1 X0.1 Y200.0 Z0.3 F1500.0 E15 ; Draw the first line
G1 X0.4 Y200.0 Z0.3 F5000.0 ; Move to side a little
G1 X0.4 Y20 Z0.3 F1500.0 E30 ; Draw the second line
G92 E0 ; Reset Extruder
G1 Z2.0 F3000 ; Move Z Axis up little to prevent scratching of Heat Bed
G1 X5 Y20 Z0.3 F5000.0 ; Move over to prevent blob squish
G92 E0
G92 E0
G1 F2700 E-5
;LAYER_COUNT:100
;LAYER:0
M107
G0 F6000 X37.229 Y51.561 Z0.2
;TYPE:SKIRT
G1 F2700 E0
G1 F1200 X38.005 Y51.099 E0.03004
G1 X38.946 Y50.647 E0.06476
G1 X39.858 Y50.306 E0.09714
G1 X40.807 Y50.045 E0.12988
G1 X42.001 Y49.84 E0.17017
G1 X43.765 Y49.649 E0.22919
G1 X46.316 Y49.321 E0.31473
G1 X48.767 Y48.936 E0.39725
G1 X51.25 Y48.472 E0.48127
G1 X53.687 Y47.948 E0.56417
G1 X56.103 Y47.353 E0.64693
G1 X58.607 Y46.663 E0.73332
G1 X60.971 Y45.937 E0.81557
G1 X63.352 Y45.132 E0.89917
G1 X65.764 Y44.241 E0.98469
G1 X68.032 Y43.327 E1.06602
G1 X70.38 Y42.305 E1.15119
G1 X72.64 Y41.245 E1.23421
G1 X74.894 Y40.107 E1.3182
G1 X77.131 Y38.898 E1.40277
G1 X79.304 Y37.643 E1.48623
G1 X81.421 Y36.336 E1.56898
G1 X83.548 Y34.942 E1.65357
G1 X85.591 Y33.517 E1.73641
G1 X87.622 Y32.016 E1.82041
G1 X89.324 Y30.689 E1.89219
G1 X90.453 Y29.793 E1.94013
G1 X90.859 Y29.49 E1.95698
G1 X91.888 Y28.812 E1.99797
G1 X92.628 Y28.397 E2.02618
G1 X93.101 Y28.152 E2.0439
G1 X94.294 Y27.624 E2.08729
G1 X95.027 Y27.362 E2.11318
G1 X95.508 Y27.205 E2.13001
G1 X96.888 Y26.851 E2.1774
G1 X97.596 Y26.726 E2.20131
G1 X98.126 Y26.645 E2.21914
G1 X99.079 Y26.545 E2.25101
G1 X99.554 Y26.528 E2.26682
G1 X100.268 Y26.521 E2.29057
G1 X100.783 Y26.531 E2.3077
G1 X101.745 Y26.592 E2.33976
G1 X102.39 Y26.682 E2.36142
G1 X103.235 Y26.826 E2.38993
G1 X104.536 Y27.131 E2.43438
G1 X105.657 Y27.468 E2.47331
G1 X106.672 Y27.787 E2.5087
G1 X109.052 Y28.46 E2.59096
G1 X111.531 Y29.087 E2.67601
G1 X113.94 Y29.624 E2.7581
G1 X116.452 Y30.112 E2.84321
G1 X118.905 Y30.514 E2.92589
G1 X121.434 Y30.857 E3.01077
G1 X123.906 Y31.119 E3.09345
G1 X126.424 Y31.317 E3.17746
G1 X128.936 Y31.442 E3.26111
G1 X132.188 Y31.5 E3.36929
G1 X165.281 Y31.501 E4.46997
G1 X166.014 Y31.514 E4.49435
G1 X166.986 Y31.575 E4.52675
G1 X167.949 Y31.722 E4.55915
G1 X168.895 Y31.954 E4.59154
G1 X169.817 Y32.269 E4.62395
G1 X170.706 Y32.663 E4.65629
G1 X171.529 Y33.117 E4.68755
G1 X172.364 Y33.682 E4.72108
G1 X173.121 Y34.297 E4.75352
G1 X173.818 Y34.976 E4.78589
G1 X174.453 Y35.714 E4.81827
G1 X175.002 Y36.476 E4.84951
G1 X175.516 Y37.345 E4.88309
G1 X175.907 Y38.159 E4.91312
G1 X176.274 Y39.137 E4.94787
G1 X176.523 Y40.041 E4.97905
G1 X176.706 Y41.042 E5.0129
G1 X176.8 Y42.181 E5.05091
G1 X176.814 Y42.83 E5.0725
G1 X176.813 Y86.95 E6.53994
G1 X176.801 Y87.688 E6.56449
G1 X176.742 Y88.66 E6.59688
G1 X176.596 Y89.623 E6.62927
G1 X176.365 Y90.57 E6.66169
G1 X176.077 Y91.426 E6.69173
G1 X175.659 Y92.382 E6.72643
G1 X175.189 Y93.233 E6.75877
G1 X174.666 Y94.013 E6.79
G1 X174.038 Y94.791 E6.82326
G1 X173.615 Y95.242 E6.84382
G1 X172.464 Y96.398 E6.89808
G1 X170.67 Y98.271 E6.98434
G1 X168.97 Y100.149 E7.0686
G1 X167.325 Y102.074 E7.15282
G1 X165.78 Y103.987 E7.2346
G1 X164.244 Y106.008 E7.31903
G1 X162.775 Y108.055 E7.40283
G1 X161.36 Y110.15 E7.48692
G1 X160.025 Y112.253 E7.56977
G1 X158.731 Y114.424 E7.65383
G1 X157.505 Y116.62 E7.73748
G1 X156.331 Y118.868 E7.82183
G1 X155.229 Y121.135 E7.90567
G1 X154.204 Y123.402 E7.98842
G1 X153.208 Y125.786 E8.07435
G1 X152.325 Y128.079 E8.15607
G1 X151.48 Y130.471 E8.24045
G1 X150.708 Y132.874 E8.3244
G1 X150.014 Y135.264 E8.40717
G1 X149.371 Y137.731 E8.49197
G1 X148.803 Y140.206 E8.57643
G1 X148.314 Y142.635 E8.65884
G1 X147.89 Y145.112 E8.74242
G1 X147.535 Y147.609 E8.82631
G1 X147.253 Y150.098 E8.90962
G1 X147.035 Y152.635 E8.99431
G1 X146.896 Y155.093 E9.0762
G1 X146.823 Y157.678 E9.16221
G1 X146.814 Y158.987 E9.20575
G1 X146.813 Y191.93 E10.30143
G1 X146.8 Y192.693 E10.32682
G1 X146.74 Y193.666 E10.35924
G1 X146.593 Y194.629 E10.39164
G1 X146.361 Y195.574 E10.424
G1 X146.047 Y196.496 E10.4564
G1 X145.652 Y197.387 E10.48882
G1 X145.181 Y198.238 E10.52117
G1 X144.636 Y199.044 E10.55353
G1 X144.022 Y199.802 E10.58597
G1 X143.342 Y200.5 E10.61838
G1 X142.605 Y201.134 E10.65072
G1 X141.815 Y201.703 E10.6831
G1 X141.007 Y202.182 E10.71434
G1 X140.096 Y202.618 E10.74793
G1 X139.184 Y202.958 E10.7803
G1 X138.28 Y203.208 E10.8115
G1 X137.278 Y203.391 E10.84538
G1 X136.109 Y203.487 E10.88439
G1 X135.502 Y203.5 E10.90458
G1 X132.178 Y203.5 E11.01514
G1 X129.594 Y203.537 E11.10109
G1 X127.029 Y203.646 E11.18648
G1 X124.55 Y203.822 E11.26914
G1 X122.049 Y204.069 E11.35273
G1 X119.541 Y204.39 E11.43683
G1 X117.058 Y204.78 E11.52042
G1 X114.615 Y205.234 E11.60307
G1 X112.123 Y205.771 E11.68786
G1 X109.677 Y206.37 E11.77162
G1 X107.265 Y207.032 E11.85481
G1 X104.539 Y207.867 E11.94963
G1 X103.393 Y208.149 E11.98888
G1 X102.679 Y208.277 E12.01301
G1 X102.182 Y208.352 E12.02973
G1 X100.784 Y208.47 E12.07639
G1 X100.013 Y208.479 E12.10204
G1 X99.498 Y208.469 E12.11917
G1 X98.536 Y208.408 E12.15123
G1 X97.892 Y208.318 E12.17286
G1 X97.06 Y208.178 E12.20092
G1 X96.177 Y207.989 E12.23095
G1 X95.577 Y207.817 E12.25171
G1 X94.854 Y207.579 E12.27703
G1 X94.359 Y207.399 E12.29455
G1 X93.143 Y206.87 E12.33865
G1 X90.262 Y205.402 E12.4462
G1 X87.946 Y204.308 E12.53139
G1 X85.725 Y203.333 E12.61206
G1 X83.319 Y202.359 E12.6984
G1 X80.977 Y201.485 E12.78154
G1 X78.608 Y200.678 E12.86478
G1 X76.191 Y199.928 E12.94895
G1 X73.785 Y199.258 E13.03202
G1 X71.342 Y198.65 E13.11575
G1 X68.858 Y198.108 E13.20031
G1 X66.385 Y197.639 E13.28403
G1 X63.909 Y197.243 E13.36743
G1 X61.431 Y196.918 E13.45056
G1 X58.898 Y196.658 E13.53525
G1 X56.406 Y196.473 E13.61836
G1 X53.91 Y196.359 E13.70146
G1 X50.97 Y196.312 E13.79926
G1 X33.403 Y196.311 E14.38354
G1 X32.67 Y196.299 E14.40792
G1 X31.698 Y196.24 E14.44031
G1 X30.735 Y196.094 E14.47271
G1 X29.788 Y195.863 E14.50513
G1 X28.9 Y195.563 E14.5363
G1 X28.008 Y195.173 E14.56868
G1 X27.125 Y194.686 E14.60222
G1 X26.374 Y194.184 E14.63227
G1 X25.559 Y193.526 E14.66711
G1 X24.861 Y192.848 E14.69947
G1 X24.225 Y192.111 E14.73185
G1 X23.655 Y191.321 E14.76425
G1 X23.193 Y190.545 E14.79429
G1 X22.739 Y189.603 E14.82907
G1 X22.41 Y188.725 E14.86025
G1 X22.141 Y187.752 E14.89383
G1 X21.964 Y186.785 E14.92653
G1 X21.868 Y185.62 E14.9654
G1 X21.854 Y184.97 E14.98703
G1 X21.855 Y150.848 E16.12193
G1 X21.868 Y150.103 E16.14671
G1 X21.926 Y149.144 E16.17867
G1 X21.998 Y148.607 E16.19669
G1 X22.107 Y147.913 E16.22005
G1 X22.474 Y145.334 E16.3067
G1 X22.758 Y142.828 E16.39058
G1 X22.975 Y140.318 E16.47437
G1 X23.115 Y137.812 E16.55785
G1 X23.188 Y135.274 E16.6423
G1 X23.188 Y132.757 E16.72602
G1 X23.117 Y130.251 E16.8094
G1 X22.975 Y127.735 E16.89322
G1 X22.797 Y125.523 E16.96703
G1 X22.766 Y124.959 E16.98581
G1 X22.753 Y124.335 E17.00657
G1 X22.754 Y108.185 E17.54372
G1 X22.768 Y107.442 E17.56844
G1 X22.831 Y106.469 E17.60087
G1 X22.979 Y105.508 E17.63321
G1 X23.212 Y104.563 E17.66558
G1 X23.512 Y103.681 E17.69657
G1 X23.74 Y103.136 E17.71622
G1 X24.862 Y100.654 E17.80681
G1 X25.832 Y98.331 E17.89054
G1 X26.749 Y95.949 E17.97543
G1 X27.564 Y93.639 E18.05691
G1 X28.339 Y91.226 E18.1412
G1 X29.044 Y88.8 E18.22523
G1 X29.68 Y86.358 E18.30916
G1 X30.238 Y83.928 E18.39209
G1 X30.744 Y81.41 E18.47751
G1 X31.158 Y78.983 E18.5594
G1 X31.516 Y76.474 E18.64369
G1 X31.798 Y73.98 E18.72717
G1 X32.013 Y71.478 E18.81069
G1 X32.154 Y68.963 E18.89448
G1 X32.227 Y66.404 E18.97962
G1 X32.236 Y65.106 E19.0228
G1 X32.237 Y61.299 E19.14942
G1 X32.249 Y60.575 E19.1735
G1 X32.308 Y59.601 E19.20596
G1 X32.455 Y58.64 E19.23829
G1 X32.686 Y57.693 E19.27071
G1 X32.986 Y56.805 E19.30189
G1 X33.392 Y55.88 E19.33548
G1 X33.827 Y55.088 E19.36554
G1 X34.409 Y54.222 E19.40024
G1 X35.023 Y53.465 E19.43266
G1 X35.701 Y52.767 E19.46503
G1 X36.438 Y52.131 E19.4974
G1 X37.229 Y51.561 E19.52983
G0 F6000 X37.434 Y51.905
G1 F1200 X38.21 Y51.443 E19.55987
G1 X39.087 Y51.021 E19.59224
G1 X39.965 Y50.691 E19.62344
G1 X40.875 Y50.439 E19.65484
G1 X42.044 Y50.238 E19.69429
G1 X43.808 Y50.047 E19.75331
G1 X46.367 Y49.718 E19.83912
G1 X48.829 Y49.331 E19.92201
G1 X51.336 Y48.863 E20.00684
G1 X53.771 Y48.339 E20.08968
G1 X56.209 Y47.739 E20.17319
G1 X58.713 Y47.048 E20.25958
G1 X61.099 Y46.316 E20.34259
G1 X63.48 Y45.511 E20.42619
G1 X65.903 Y44.616 E20.5121
G1 X68.192 Y43.694 E20.59418
G1 X70.54 Y42.672 E20.67935
G1 X72.81 Y41.607 E20.76275
G1 X75.084 Y40.459 E20.84747
G1 X77.321 Y39.25 E20.93204
G1 X79.504 Y37.989 E21.01589
G1 X81.64 Y36.671 E21.09937
G1 X83.767 Y35.277 E21.18396
G1 X85.829 Y33.839 E21.26757
G1 X87.86 Y32.338 E21.35157
G1 X89.57 Y31.004 E21.4237
G1 X90.692 Y30.113 E21.47136
G1 X91.079 Y29.824 E21.48742
G1 X92.108 Y29.146 E21.52841
G1 X92.812 Y28.752 E21.55524
G1 X93.263 Y28.518 E21.57214
G1 X94.456 Y27.99 E21.61553
G1 X95.151 Y27.742 E21.64007
G1 X95.632 Y27.585 E21.6569
G1 X96.958 Y27.245 E21.70243
G1 X97.656 Y27.121 E21.72601
G1 X98.168 Y27.043 E21.74324
G1 X99.094 Y26.945 E21.77421
G1 X99.558 Y26.928 E21.78965
G1 X100.261 Y26.921 E21.81303
G1 X100.758 Y26.93 E21.82957
G1 X101.69 Y26.988 E21.86062
G1 X102.323 Y27.076 E21.88188
G1 X103.144 Y27.215 E21.90958
G1 X104.421 Y27.514 E21.9532
G1 X105.537 Y27.85 E21.99196
G1 X106.552 Y28.169 E22.02735
G1 X108.954 Y28.848 E22.11037
G1 X111.433 Y29.475 E22.19542
G1 X113.864 Y30.017 E22.27826
G1 X116.382 Y30.506 E22.36357
G1 X118.84 Y30.909 E22.44642
G1 X121.392 Y31.255 E22.53207
G1 X123.869 Y31.518 E22.61492
G1 X126.404 Y31.717 E22.6995
G1 X128.916 Y31.842 E22.78315
G1 X132.181 Y31.9 E22.89176
G1 X165.274 Y31.901 E23.99244
G1 X165.99 Y31.913 E24.01626
G1 X166.926 Y31.97 E24.04745
G1 X167.854 Y32.111 E24.07867
G1 X168.766 Y32.333 E24.10988
G1 X169.655 Y32.635 E24.14111
G1 X170.513 Y33.014 E24.17231
G1 X171.305 Y33.449 E24.20236
G1 X172.112 Y33.993 E24.23473
G1 X172.842 Y34.584 E24.26597
G1 X173.515 Y35.237 E24.29716
G1 X174.128 Y35.948 E24.32838
G1 X174.677 Y36.71 E24.35962
G1 X175.155 Y37.518 E24.39085
G1 X175.546 Y38.332 E24.42088
G1 X175.888 Y39.243 E24.45325
G1 X176.137 Y40.147 E24.48443
G1 X176.307 Y41.075 E24.51581
G1 X176.401 Y42.214 E24.55382
G1 X176.414 Y42.83 E24.57432
G1 X176.413 Y86.944 E26.04155
G1 X176.402 Y87.664 E26.06551
G1 X176.346 Y88.601 E26.09673
G1 X176.207 Y89.529 E26.12794
G1 X175.986 Y90.442 E26.15918
G1 X175.698 Y91.298 E26.18922
G1 X175.308 Y92.189 E26.22157
G1 X174.856 Y93.011 E26.25277
G1 X174.354 Y93.762 E26.28281
G1 X173.746 Y94.517 E26.31505
G1 X173.323 Y94.968 E26.33562
G1 X172.175 Y96.121 E26.38974
G1 X170.381 Y97.994 E26.476
G1 X168.673 Y99.881 E26.56065
G1 X167.021 Y101.814 E26.64522
G1 X165.469 Y103.736 E26.72739
G1 X163.919 Y105.775 E26.81258
G1 X162.45 Y107.822 E26.89638
G1 X161.022 Y109.936 E26.98123
G1 X159.681 Y112.048 E27.06444
G1 X158.387 Y114.219 E27.1485
G1 X157.15 Y116.435 E27.23291
G1 X155.976 Y118.683 E27.31726
G1 X154.869 Y120.96 E27.40147
G1 X153.84 Y123.237 E27.48458
G1 X152.839 Y125.632 E27.57091
G1 X151.952 Y127.935 E27.65299
G1 X151.103 Y130.338 E27.73776
G1 X150.327 Y132.752 E27.8221
G1 X149.63 Y135.152 E27.90522
G1 X148.984 Y137.63 E27.99039
G1 X148.413 Y140.116 E28.07523
G1 X147.922 Y142.556 E28.15801
G1 X147.496 Y145.044 E28.24197
G1 X147.139 Y147.553 E28.32626
G1 X146.854 Y150.064 E28.41031
G1 X146.637 Y152.601 E28.495
G1 X146.496 Y155.082 E28.57765
G1 X146.423 Y157.667 E28.66366
G1 X146.414 Y158.984 E28.70747
G1 X146.413 Y191.924 E29.80306
G1 X146.401 Y192.669 E29.82784
G1 X146.344 Y193.606 E29.85906
G1 X146.204 Y194.534 E29.89027
G1 X145.982 Y195.446 E29.92149
G1 X145.681 Y196.335 E29.95271
G1 X145.302 Y197.194 E29.98394
G1 X144.849 Y198.015 E30.01513
G1 X144.325 Y198.793 E30.04632
G1 X143.735 Y199.523 E30.07754
G1 X143.081 Y200.197 E30.10878
G1 X142.371 Y200.81 E30.13998
G1 X141.61 Y201.359 E30.17119
G1 X140.834 Y201.821 E30.20122
G1 X139.956 Y202.243 E30.23363
G1 X139.077 Y202.572 E30.26484
G1 X138.173 Y202.822 E30.29604
G1 X137.245 Y202.992 E30.32742
G1 X136.1 Y203.087 E30.36563
G1 X135.493 Y203.1 E30.38582
G1 X132.172 Y203.1 E30.49628
G1 X129.577 Y203.137 E30.5826
G1 X127.012 Y203.246 E30.66799
G1 X124.519 Y203.423 E30.75111
G1 X121.998 Y203.672 E30.83537
G1 X119.49 Y203.993 E30.91947
G1 X116.996 Y204.385 E31.00344
G1 X114.531 Y204.843 E31.08683
G1 X112.028 Y205.382 E31.17199
G1 X109.582 Y205.981 E31.25574
G1 X107.159 Y206.647 E31.33932
G1 X104.443 Y207.479 E31.4338
G1 X103.323 Y207.755 E31.47217
G1 X102.619 Y207.881 E31.49595
G1 X102.122 Y207.956 E31.51267
G1 X100.751 Y208.071 E31.55843
G1 X100.02 Y208.079 E31.58274
G1 X99.523 Y208.07 E31.59928
G1 X98.591 Y208.012 E31.63034
G1 X97.958 Y207.924 E31.65159
G1 X97.144 Y207.787 E31.67905
G1 X96.261 Y207.598 E31.70908
G1 X95.702 Y207.437 E31.72843
G1 X94.99 Y207.203 E31.75336
G1 X94.518 Y207.032 E31.77005
G1 X93.325 Y206.514 E31.81331
G1 X90.433 Y205.04 E31.92127
G1 X88.117 Y203.946 E32.00647
G1 X85.875 Y202.962 E32.0879
G1 X83.459 Y201.984 E32.17459
G1 X81.106 Y201.106 E32.25812
G1 X78.737 Y200.299 E32.34136
G1 X76.309 Y199.546 E32.42591
G1 X73.882 Y198.87 E32.50971
G1 X71.427 Y198.259 E32.59385
G1 X68.939 Y197.716 E32.67855
G1 X66.46 Y197.246 E32.76247
G1 X63.961 Y196.846 E32.84665
G1 X61.483 Y196.521 E32.92977
G1 X58.933 Y196.259 E33.01503
G1 X56.424 Y196.073 E33.09871
G1 X53.928 Y195.959 E33.18181
G1 X50.976 Y195.912 E33.28001
G1 X33.409 Y195.911 E33.86429
G1 X32.694 Y195.9 E33.88808
G1 X31.757 Y195.844 E33.9193
G1 X30.829 Y195.705 E33.95051
G1 X29.916 Y195.484 E33.98175
G1 X29.06 Y195.196 E34.01179
G1 X28.168 Y194.806 E34.04417
G1 X27.347 Y194.353 E34.07535
G1 X26.596 Y193.851 E34.1054
G1 X25.837 Y193.239 E34.13783
G1 X25.163 Y192.586 E34.16904
G1 X24.549 Y191.877 E34.20024
G1 X23.999 Y191.116 E34.23147
G1 X23.537 Y190.34 E34.2615
G1 X23.114 Y189.463 E34.29389
G1 X22.785 Y188.585 E34.32507
G1 X22.534 Y187.68 E34.35631
G1 X22.363 Y186.752 E34.3877
G1 X22.267 Y185.587 E34.42657
G1 X22.254 Y184.97 E34.4471
G1 X22.255 Y150.855 E35.58177
G1 X22.267 Y150.127 E35.60599
G1 X22.323 Y149.197 E35.63697
G1 X22.393 Y148.669 E35.65469
G1 X22.502 Y147.975 E35.67806
G1 X22.87 Y145.39 E35.7649
G1 X23.157 Y142.862 E35.84952
G1 X23.373 Y140.352 E35.93331
G1 X23.515 Y137.824 E36.01753
G1 X23.588 Y135.286 E36.10198
G1 X23.588 Y132.757 E36.18609
G1 X23.517 Y130.24 E36.26984
G1 X23.374 Y127.703 E36.35436
G1 X23.196 Y125.501 E36.42783
G1 X23.166 Y124.951 E36.44615
G1 X23.153 Y124.335 E36.46665
G1 X23.154 Y108.192 E37.00356
G1 X23.167 Y107.467 E37.02768
G1 X23.226 Y106.53 E37.05891
G1 X23.368 Y105.603 E37.0901
G1 X23.591 Y104.692 E37.12129
G1 X23.891 Y103.81 E37.15228
G1 X24.104 Y103.301 E37.17063
G1 X25.226 Y100.819 E37.26123
G1 X26.201 Y98.485 E37.34536
G1 X27.122 Y96.093 E37.43061
G1 X27.941 Y93.772 E37.51247
G1 X28.72 Y91.348 E37.59715
G1 X29.428 Y88.912 E37.68153
G1 X30.067 Y86.459 E37.76584
G1 X30.628 Y84.018 E37.84914
G1 X31.136 Y81.489 E37.93494
G1 X31.554 Y79.04 E38.01757
G1 X31.912 Y76.531 E38.10187
G1 X32.197 Y74.014 E38.18612
G1 X32.411 Y71.512 E38.26964
G1 X32.554 Y68.974 E38.35418
G1 X32.627 Y66.415 E38.43933
G1 X32.636 Y65.109 E38.48277
G1 X32.637 Y61.305 E38.60929
G1 X32.648 Y60.599 E38.63278
G1 X32.704 Y59.661 E38.66403
G1 X32.844 Y58.734 E38.69521
G1 X33.065 Y57.821 E38.72646
G1 X33.353 Y56.965 E38.75649
G1 X33.743 Y56.073 E38.78887
G1 X34.178 Y55.281 E38.81893
G1 X34.72 Y54.473 E38.85129
G1 X35.31 Y53.743 E38.88251
G1 X35.963 Y53.069 E38.91372
G1 X36.672 Y52.455 E38.94492
G1 X37.434 Y51.905 E38.97617
G0 F6000 X37.639 Y52.249
G1 F1200 X38.415 Y51.787 E39.00621
G1 X39.228 Y51.395 E39.03623
G1 X40.073 Y51.076 E39.06627
G1 X40.943 Y50.833 E39.09631
G1 X42.087 Y50.636 E39.13492
G1 X43.851 Y50.445 E39.19394
